!!!OTL: 1336. Der Marsch ins Feld.
!!!ARE: Europa, Mitteleuropa, Deutschland, Westerwald
!!!SCT: E1336
!!!TXL: @@DE
!!!YEM: Copyright 1995, estate of Helmut Schaffrath.
**kern	**text
*ICvox	*
*M4/4	*
*met(c)	*
*k[f#]	*
*G:	*
!LO:TX:a:t=Marsch.	!
!LO:TX:a:t=Aus dem Weſterwald.	!
{4d	Jetʒt
=1	=1
4.g	geht
8a	der
8bL	Marſch
8aJ	.
8bL	ins
8ccJ	.
=2	=2
4.dd}	Feld,
{8ee	da
4.dd	heißts
8b	Sol-
=3	=3
8dd	-da-
8dd	-ten,
8cc	ſchla-
8cc	-get
4b	auf
8a	eu-
8a	-er
=4	=4
2b	Ʒelt!
4r}	.
{8gL	Früh-
8bJ	.
=5	=5
4dd	-mor-
8dd	-gens
8dd	da
4cc	müſ-
8cc	-ſen
8cc	wir
=6	=6
4b	ex-
8ddL	-er-
8bJ	.
4a}	-cier'n,
{8gL	halb
8bJ	.
=7	=7
4dd	links,
4dd	halb
4cc	rechts
8cc	un-
8cc	-ſre
=8	=8
4b	Glie-
8ddL	-der
8bJ	for-
4a}	-mier'n.
{8bL	So-
8aJ	.
=9	=9
4.g	-bald
8a	der
8bL	Tag
8aJ	.
8bL	an-
8ccJ	.
=10	=10
2.dd}	-bricht,
{8ee	das
8ee	Ge-
=11	=11
8ddL	-wehr
8eeJ	.
(8dd	auf
8cc)	der
4b/	Schulter
4a	.
=12	=12
2g	liegt.
4r}	.
==	==
!!!AGN: Staende -, Soldaten -, Kriegs - Lied
!!!ONB: ESAC (Essen Associative Code) Database: ERK3
!!!AMT: simple quadruple
!!!AIN: vox
!!!EED: Helmut Schaffrath
!!!EEV: 1.0
!!!GTL: Staendelieder (Berufslieder). 1. Soldaten- und Kriegslieder. Soldatenlieder seit dem 30jaehr. Kriege.
!!!URL-scan: https://rosdok.uni-rostock.de/mcrviewer/recordIdentifier/rosdok_ppn745177999/iview2/phys_0220.iview2?x=-128.77276441889308&y=107.29956773715094&scale=0.5870222003877485&rotation=0&layout=singlePageLayout
!!!ENC: Anna Maria Matuszewska
!!!EEV: 2024/12/27
*-	*-
